components/Common/Svg/svgs/android.svg

<svg width="40" height="40" viewBox="0 0 40 40" fill="none" xmlns="http://www.w3.org/2000/svg">
<path d="M27.5 24.3751C27.5 24.746 27.39 25.1085 27.184 25.4168C26.978 25.7252 26.6851 25.9655 26.3425 26.1074C25.9999 26.2493 25.6229 26.2864 25.2592 26.2141C24.8955 26.1418 24.5614 25.9632 24.2992 25.701C24.037 25.4387 23.8584 25.1046 23.786 24.7409C23.7137 24.3772 23.7508 24.0002 23.8927 23.6576C24.0346 23.315 24.275 23.0222 24.5833 22.8161C24.8917 22.6101 25.2542 22.5001 25.625 22.5001C26.1223 22.5001 26.5992 22.6977 26.9508 23.0493C27.3025 23.4009 27.5 23.8778 27.5 24.3751ZM14.375 22.5001C14.0042 22.5001 13.6417 22.6101 13.3333 22.8161C13.025 23.0222 12.7846 23.315 12.6427 23.6576C12.5008 24.0002 12.4637 24.3772 12.536 24.7409C12.6084 25.1046 12.787 25.4387 13.0492 25.701C13.3114 25.9632 13.6455 26.1418 14.0092 26.2141C14.3729 26.2864 14.7499 26.2493 15.0925 26.1074C15.4352 25.9655 15.728 25.7252 15.934 25.4168C16.14 25.1085 16.25 24.746 16.25 24.3751C16.25 23.8778 16.0525 23.4009 15.7008 23.0493C15.3492 22.6977 14.8723 22.5001 14.375 22.5001ZM37.5 26.2501V30.0001C37.4993 30.6629 37.2356 31.2984 36.767 31.7671C36.2983 32.2358 35.6628 32.4994 35 32.5001H5.00001C4.33719 32.4994 3.70174 32.2358 3.23306 31.7671C2.76438 31.2984 2.50075 30.6629 2.50001 30.0001V26.4265C2.4978 24.0168 2.98724 21.6319 3.93839 19.4178C4.88953 17.2036 6.28237 15.2068 8.03173 13.5495L4.1161 9.63388C3.88404 9.39896 3.75436 9.08177 3.75538 8.75157C3.7564 8.42136 3.88803 8.10498 4.12153 7.87149C4.35503 7.63801 4.67143 7.50641 5.00163 7.50542C5.33184 7.50443 5.64902 7.63414 5.88391 7.86622L9.97157 11.9539C12.9065 9.87459 16.4134 8.75535 20.0103 8.75001C23.6071 8.74467 27.1173 9.85348 30.0584 11.924L34.1163 7.86622C34.3512 7.63416 34.6684 7.50448 34.9986 7.5055C35.3288 7.50652 35.6452 7.63815 35.8786 7.87165C36.1121 8.10515 36.2437 8.42155 36.2447 8.75176C36.2457 9.08196 36.116 9.39914 35.8839 9.63404L32.0027 13.5153C32.1206 13.6266 32.2373 13.7396 32.3528 13.8542C33.9895 15.4761 35.2874 17.4073 36.1711 19.5353C37.0547 21.6634 37.5065 23.9459 37.5 26.2501ZM35 26.2501C35.0055 24.2751 34.6183 22.3187 33.8609 20.4946C33.1035 18.6706 31.991 17.0153 30.5881 15.6251C30.2104 15.2489 29.8131 14.8928 29.3981 14.5581C29.3903 14.5518 29.3825 14.5459 29.3747 14.5393C26.7188 12.4016 23.4096 11.2405 20.0003 11.2501H19.9469C11.7052 11.2787 5.00001 18.0868 5.00001 26.4267V30.0018L35 30.0003V26.2501Z" fill="#161616"/>
</svg>

<svg width="40" height="40" viewBox="0 0 40 40" fill="none" xmlns="http://www.w3.org/2000/svg"><path d="M27.5 24.375a1.875 1.875 0 1 1-3.75 0 1.875 1.875 0 0 1 3.75 0ZM14.375 22.5a1.875 1.875 0 1 0 0 3.751 1.875 1.875 0 0 0 0-3.75ZM37.5 26.25V30a2.503 2.503 0 0 1-2.5 2.5H5A2.502 2.502 0 0 1 2.5 30v-3.573A17.716 17.716 0 0 1 8.032 13.55L4.116 9.633a1.25 1.25 0 0 1 1.768-1.768l4.088 4.088a17.41 17.41 0 0 1 20.086-.03l4.058-4.058a1.25 1.25 0 0 1 1.768 1.768l-3.881 3.881A17.384 17.384 0 0 1 37.5 26.25Zm-2.5 0a14.9 14.9 0 0 0-4.412-10.625 15.271 15.271 0 0 0-1.19-1.067l-.023-.019A14.884 14.884 0 0 0 20 11.25h-.053C11.705 11.28 5 18.087 5 26.427v3.575L35 30v-3.75Z" fill="#161616"/></svg>
